!!!OTL: Der Jaeger und die schwarzbraune Hexe. / Erste Weise.
!!!OTL-incipit: ES BLIES EIN JAEGER
!!!COM: Volksweise
!!!ARE: Europa, Mitteleuropa, Deutschland
!!!SCT: F0661
!!!TXL: @@DE
!!!YEM: Copyright 1995, estate of Helmut Schaffrath.
**kern	**text
*ICvox	*
*clefG2	*
*M2/4	*
*k[f#c#g#]	*
*A:	*
!LO:TX:a:t=Gehend.	!
!LO:TX:a:t=P:only the highest voice encoded:problem	!
{8e	1._Es
=1	=1
8e	blies
8a	ein
8a	Jä_ger
8cc#/	wohl
=2	=2
16b/L	in
16aJ	.
16g#L	ſein
16f#J	.
4e}	Horn,
=3	=3
{4dd	wohl
16cc#/L	in
16aJ	.
16ee/L	ſein
16cc#J	.
=4	=4
4b/	Horn;
8r}	.
{16a/L	und
16cc#J	.
=5	=5
[>16ee/	Al-
16ee/]	-les,
16ee/	was
16ee/	er
(16ee/	blies,
16cc#/)	.
8a	das
=6	=6
8dd/	war
8dd/	ver-
4dd/}	-lor'n,
=7	=7
{8cc#/	hop-
8cc#/	-ſa-
4ee/	-ſa,
=8	=8
16b/L	val-
16aJ	.
16g#	-lal-
16f#	-le-
8e;}	-ra!
{8e	und
=9	=9
16a	Al-
16a	-les,
[>16cc#/	was
16cc#/]	er
(16ee/	blies
16cc#/)	.
8a	das
=10	=10
(16cc#/	war
16b/)	.
8b/	ver-
8a;}	-lor'n.
==	==
!!!AGN: Staende -, Jaeger - Lied, Liebe, Tod
!!!ONB: ESAC (Essen Associative Code) Database: FINK
!!!AMT: simple duple
!!!AIN: vox
!!!EED: Helmut Schaffrath
!!!EEV: 1.0
!!!RDF**kern: > = above
!!!GTL: Soldaten- und Jaegerlieder
!!Text: Volkslied
!!!source: Musikalischer Hausschatz der Deutschen. Eine Sammlung von über 1000 Liedern und Gesängen mit Singstimmen und Klavierbegleitung. Leipzig, Litterarisches Verlags-Haus.
!!!page: 435
!!!URL-scan: https://www.digitale-sammlungen.de/en/view/bsb11144622?page=402
!!!ENC: Anna Maria Matuszewska
!!!EEV: 2024/08/05
*-	*-
